icons/phpstan-dark.svg

<svg width="256" height="256" viewBox="0 0 256 256" fill="none" xmlns="http://www.w3.org/2000/svg">
<rect width="256" height="256" rx="60" fill="#282828"/>
<path d="M62.0344 184.231L57.6619 194.584C57.0594 196.244 57.1131 198.071 57.812 199.692C58.5109 201.314 59.8023 202.607 61.4225 203.309C62.9638 204.077 64.7322 204.258 66.3972 203.818C68.0623 203.378 69.51 202.346 70.47 200.916L71.9688 197.334L62.0344 184.231Z" fill="#232323"/>
<path d="M128.55 49.625C139.638 49.6547 150.419 53.2725 159.281 59.9375C159.792 60.3824 160.446 60.6275 161.124 60.6275C161.801 60.6275 162.456 60.3824 162.966 59.9375C163.477 59.4696 163.783 58.8203 163.821 58.1288C163.858 57.4374 163.623 56.7588 163.166 56.2387C161.584 54.2616 159.419 52.8347 156.978 52.1619C159.193 49.8203 161.909 48.0098 164.922 46.8657C167.935 45.7216 171.168 45.2735 174.379 45.555C190.349 45.555 224.278 68.7513 224.278 112.243C224.278 154.001 196.936 163.001 189.504 163.001C178.194 163.001 166.466 151.313 166.466 143.881C170.657 141.47 174.278 138.183 177.082 134.243C179.885 130.304 181.806 125.806 182.711 121.056C182.711 121.056 183.309 103.243 182.711 88.1525C182.59 87.4839 182.257 86.8719 181.762 86.4063C181.27 85.943 180.64 85.6513 179.968 85.5744C179.595 85.5686 179.224 85.6367 178.877 85.7748C178.53 85.9128 178.214 86.1181 177.947 86.3788C177.405 86.9076 177.094 87.6291 177.081 88.3863C177.081 90.0706 177.823 100.5 177.266 119.228C176.745 123.463 175.155 127.495 172.646 130.947C170.138 134.399 166.792 137.156 162.925 138.959C164.387 134.849 165.599 130.654 166.555 126.398C166.906 124.755 166.555 123.614 165.462 123.146C165.003 122.942 164.492 122.885 163.999 122.984C163.507 123.082 163.057 123.331 162.712 123.696C162.482 123.94 162.304 124.227 162.189 124.542C161.454 126.02 135.48 210.479 99.5512 210.479C69.1981 210.479 51.7012 167.167 51.7012 157.233C51.4699 155.481 51.5992 153.701 52.0814 152.001C52.5635 150.302 53.3883 148.719 54.5049 147.349C55.6215 145.98 57.0064 144.854 58.5744 144.04C60.1423 143.226 61.8603 142.742 63.6225 142.616C69.0572 143.31 74.0628 145.93 77.73 150C78.6581 151.788 73.7287 156.071 73.7287 156.071L69.4319 152.633C68.9482 152.258 68.3491 152.062 67.7371 152.079C67.1251 152.097 66.5382 152.327 66.0769 152.729C65.6062 153.189 65.3351 153.814 65.3222 154.472C65.3093 155.129 65.5557 155.765 66.0081 156.243C67.1012 157.343 99.9156 183.784 99.9156 183.784C100.434 184.276 101.109 184.57 101.822 184.617C102.535 184.663 103.243 184.459 103.821 184.038C104.314 183.569 104.603 182.924 104.625 182.244C104.646 181.563 104.4 180.901 103.937 180.401L94.6975 172.956L104.542 145.249C104.542 145.249 89.4175 138.498 79.5725 145.937C77.8748 143.343 75.5739 141.2 72.8667 139.69C70.1595 138.18 67.1268 137.349 64.0281 137.268C59.6043 137.199 55.3245 138.839 52.0794 141.846C48.8196 144.862 46.8329 149.007 46.5244 153.438C36.5947 142.142 31.3153 127.503 31.75 112.469C31.75 82.3706 55.5856 45.5412 83.2231 45.5412C89.4606 45.5355 95.5066 47.6959 100.328 51.6531L94.2231 56.2938C93.7056 56.7861 93.3959 57.4576 93.3576 58.1709C93.3192 58.8841 93.5551 59.585 94.0169 60.13C94.4486 60.6139 95.0462 60.9184 95.6915 60.9834C96.3368 61.0483 96.983 60.8689 97.5025 60.4806C106.09 53.0381 117.196 49.1551 128.55 49.625Z" fill="#516CB3"/>
<path d="M85.7394 165.812L94.4913 145.985C97.9914 146.64 101.539 147.008 105.099 147.085C115.745 146.858 125.872 142.444 133.286 134.801C140.699 127.158 144.803 116.902 144.706 106.254C144.883 95.3142 140.707 84.7518 133.096 76.8909C125.485 69.0299 115.063 64.5144 104.123 64.3375C93.183 64.1606 82.6206 68.337 74.7597 75.9478C66.8987 83.5586 62.3831 93.9804 62.2063 104.921C61.9406 111.92 63.5148 118.866 66.7719 125.066C70.0291 131.267 74.8552 136.505 80.7688 140.258L73.7288 156.132L85.7394 165.812ZM153.857 107.444C153.486 107.444 153.121 107.351 152.796 107.172C152.472 106.992 152.198 106.734 152.001 106.419C151.803 106.104 151.688 105.744 151.667 105.373C151.645 105.002 151.717 104.631 151.877 104.295C152.661 102.654 153.865 101.25 155.367 100.225C156.869 99.2003 158.616 98.5906 160.429 98.4581C162.208 98.5498 163.932 99.1059 165.428 100.071C166.925 101.036 168.143 102.376 168.961 103.958C169.102 104.217 169.189 104.501 169.219 104.793C169.248 105.086 169.219 105.382 169.133 105.663C169.048 105.944 168.907 106.205 168.719 106.43C168.532 106.656 168.301 106.841 168.04 106.976C167.779 107.109 167.494 107.188 167.202 107.209C166.91 107.229 166.617 107.191 166.34 107.096C166.063 107.001 165.808 106.852 165.589 106.656C165.371 106.461 165.195 106.224 165.07 105.959C164.618 105.094 163.957 104.356 163.146 103.813C162.335 103.27 161.401 102.939 160.429 102.851C157.453 102.851 155.851 106.158 155.823 106.158C155.651 106.536 155.374 106.857 155.026 107.083C154.678 107.31 154.272 107.433 153.857 107.437V107.444Z" fill="#232323"/>
<path d="M103.422 132.813C108.679 132.851 113.828 131.327 118.217 128.434C122.607 125.541 126.038 121.41 128.076 116.565C130.114 111.719 130.667 106.377 129.665 101.217C128.663 96.0564 126.151 91.3099 122.447 87.5793C118.744 83.8487 114.016 81.302 108.863 80.2624C103.71 79.2227 98.3642 79.7369 93.5039 81.7397C88.6435 83.7425 84.4875 87.1436 81.563 91.5117C78.6384 95.8799 77.077 101.018 77.0769 106.275C77.0642 109.747 77.7356 113.188 79.0527 116.401C80.3698 119.614 82.3069 122.536 84.7532 125C87.1996 127.464 90.1074 129.423 93.3105 130.763C96.5137 132.103 99.9495 132.8 103.422 132.813Z" fill="#D2D2D2"/>
<path d="M103.422 119.984C106.135 120.003 108.792 119.216 111.056 117.723C113.321 116.229 115.091 114.097 116.143 111.597C117.194 109.096 117.479 106.339 116.962 103.676C116.444 101.014 115.147 98.5644 113.236 96.6395C111.325 94.7145 108.885 93.4006 106.225 92.8644C103.566 92.3281 100.808 92.5936 98.2997 93.6273C95.7917 94.6609 93.6471 96.4161 92.138 98.6703C90.6289 100.924 89.8232 103.576 89.8231 106.289C89.8168 108.081 90.1635 109.857 90.8435 111.515C91.5235 113.173 92.5234 114.681 93.7861 115.953C95.0489 117.224 96.5498 118.235 98.2031 118.927C99.8564 119.618 101.63 119.977 103.422 119.984Z" fill="#232323"/>
</svg>

<svg xmlns="http://www.w3.org/2000/svg" width="256" height="256" fill="none"><rect width="256" height="256" fill="#282828" rx="60"/><path fill="#232323" d="m62.034 184.231-4.372 10.353a6.93 6.93 0 0 0 3.76 8.725 7.09 7.09 0 0 0 9.048-2.393l1.499-3.582z"/><path fill="#516CB3" d="M128.55 49.625a51.36 51.36 0 0 1 30.731 10.313 2.806 2.806 0 0 0 3.685 0 2.65 2.65 0 0 0 .2-3.7 12 12 0 0 0-6.188-4.076 21.39 21.39 0 0 1 17.401-6.607c15.97 0 49.899 23.196 49.899 66.688 0 41.758-27.342 50.758-34.774 50.758-11.31 0-23.038-11.688-23.038-19.12a33.58 33.58 0 0 0 16.245-22.825s.598-17.813 0-32.903a3.17 3.17 0 0 0-.949-1.747 3.14 3.14 0 0 0-1.794-.832 2.83 2.83 0 0 0-2.021.805 2.87 2.87 0 0 0-.866 2.007c0 1.685.742 12.114.185 30.842a25.16 25.16 0 0 1-14.341 19.731 108 108 0 0 0 3.63-12.561c.351-1.643 0-2.784-1.093-3.252a2.43 2.43 0 0 0-2.75.55c-.23.244-.408.531-.523.846-.735 1.478-26.709 85.937-62.638 85.937-30.353 0-47.85-43.312-47.85-53.246a12.96 12.96 0 0 1 6.873-13.193 13 13 0 0 1 5.049-1.424A22.9 22.9 0 0 1 77.73 150c.928 1.788-4.001 6.071-4.001 6.071l-4.297-3.438a2.65 2.65 0 0 0-1.695-.554 2.65 2.65 0 0 0-1.66.65 2.504 2.504 0 0 0-.069 3.514c1.093 1.1 33.908 27.541 33.908 27.541a3.06 3.06 0 0 0 3.905.254 2.593 2.593 0 0 0 .116-3.637l-9.24-7.445 9.845-27.707s-15.124-6.751-24.97.688a19.18 19.18 0 0 0-15.544-8.669 17.2 17.2 0 0 0-11.949 4.578 17.44 17.44 0 0 0-5.555 11.592 59.45 59.45 0 0 1-14.774-40.969c0-30.098 23.836-66.928 51.473-66.928a26.92 26.92 0 0 1 17.105 6.112l-6.105 4.64a2.8 2.8 0 0 0-.206 3.837 2.59 2.59 0 0 0 3.486.35 44.6 44.6 0 0 1 31.047-10.855"/><path fill="#232323" d="m85.74 165.812 8.751-19.827a65.4 65.4 0 0 0 10.608 1.1 40.47 40.47 0 0 0 39.607-40.831A41.253 41.253 0 0 0 74.76 75.948a41.26 41.26 0 0 0-12.554 28.973 40.05 40.05 0 0 0 18.563 35.337l-7.04 15.874zm68.117-58.368a2.19 2.19 0 0 1-1.856-1.025 2.2 2.2 0 0 1-.124-2.124 10.3 10.3 0 0 1 8.552-5.837 10.19 10.19 0 0 1 8.532 5.5 2.22 2.22 0 0 1 .172 1.705 2.2 2.2 0 0 1-.414.767 2.2 2.2 0 0 1-.679.546 2.2 2.2 0 0 1-1.7.12 2.2 2.2 0 0 1-1.27-1.137 5.83 5.83 0 0 0-4.641-3.108c-2.976 0-4.578 3.307-4.606 3.307a2.18 2.18 0 0 1-1.966 1.279z"/><path fill="#D2D2D2" d="M103.422 132.813a26.53 26.53 0 0 0 24.654-16.248 26.54 26.54 0 0 0-19.213-36.303 26.538 26.538 0 0 0-31.786 26.013 26.443 26.443 0 0 0 26.345 26.538"/><path fill="#232323" d="M103.422 119.984a13.69 13.69 0 0 0 12.721-8.387 13.7 13.7 0 0 0 .819-7.921A13.69 13.69 0 0 0 98.3 93.627a13.69 13.69 0 0 0-8.477 12.662 13.647 13.647 0 0 0 13.599 13.695"/></svg>
